icons/mobile/24/svg/find-in-page-24.svg

<!-- This Source Code Form is subject to the terms of the Mozilla Public
   - License, v. 2.0. If a copy of the MPL was not distributed with this
   - file, You can obtain one at http://mozilla.org/MPL/2.0/. -->
<svg width="24" height="24" viewBox="0 0 24 24" fill="none" xmlns="http://www.w3.org/2000/svg">
    <path fill-rule="evenodd" clip-rule="evenodd" d="M16 13C18.206 13 20 14.794 20 17C20 17.7859 19.764 18.5139 19.3711 19.1328L22 21.7617L20.7617 23L18.1328 20.3711C17.5139 20.764 16.7859 21 16 21C13.794 21 12 19.206 12 17C12 14.794 13.794 13 16 13ZM16 14.75C14.76 14.75 13.75 15.76 13.75 17C13.75 18.24 14.76 19.25 16 19.25C17.24 19.25 18.25 18.24 18.25 17C18.25 15.76 17.24 14.75 16 14.75Z" fill="black" />
    <path d="M11.5 2C11.732 2 11.9551 2.09186 12.1191 2.25586L16.7441 6.88086C16.9081 7.04486 17 7.268 17 7.5V11.5957C16.675 11.5357 16.342 11.5 16 11.5C15.745 11.5 15.496 11.5236 15.25 11.5566V8.5H11.5C10.948 8.5 10.5 8.052 10.5 7.5V3.75H4.5C4.087 3.75 3.75 4.087 3.75 4.5V18.5C3.75 18.913 4.087 19.25 4.5 19.25H10.9873C11.2863 19.914 11.7133 20.507 12.2373 21H4.5C3.121 21 2 19.879 2 18.5V4.5C2 3.121 3.121 2 4.5 2H11.5Z" fill="black" />
</svg>

<!-- This Source Code Form is subject to the terms of the Mozilla Public
   - License, v. 2.0. If a copy of the MPL was not distributed with this
   - file, You can obtain one at http://mozilla.org/MPL/2.0/. -->
<svg xmlns="http://www.w3.org/2000/svg" width="24" height="24" fill="none" viewBox="0 0 24 24">
    <path fill="#000" fill-rule="evenodd" d="M16 13c2.206 0 4 1.794 4 4 0 .786-.236 1.514-.629 2.133L22 21.762 20.762 23l-2.63-2.629A3.97 3.97 0 0 1 16 21c-2.206 0-4-1.794-4-4s1.794-4 4-4m0 1.75c-1.24 0-2.25 1.01-2.25 2.25s1.01 2.25 2.25 2.25 2.25-1.01 2.25-2.25-1.01-2.25-2.25-2.25" clip-rule="evenodd" />
    <path fill="#000" d="M11.5 2c.232 0 .455.092.62.256l4.624 4.625A.88.88 0 0 1 17 7.5v4.096a5.5 5.5 0 0 0-1-.096 6 6 0 0 0-.75.057V8.5H11.5a1 1 0 0 1-1-1V3.75h-6a.75.75 0 0 0-.75.75v14c0 .413.337.75.75.75h6.487a5.5 5.5 0 0 0 1.25 1.75H4.5A2.5 2.5 0 0 1 2 18.5v-14C2 3.121 3.121 2 4.5 2z" />
</svg>
